Adwaita++/actions/22/edit-select.svg

<svg fill="none" height="22" viewBox="0 0 22 22" width="22" xmlns="http://www.w3.org/2000/svg">
  <path clip-rule="evenodd" d="m3 7.83354v-1.3333-.00024h1.3333c.41259 0 .73641.1204.99997.37499l3.54151 3.62501-3.54151 3.6249c-.26356.2546-.58738.375-.99997.375h-1.3333v-1.3333c0-.3425.1731-.7046.41666-.9583l1.70822-1.7082-1.70822-1.70825c-.24356-.25371-.41666-.6158-.41666-.95831zm15.9996 0v-1.3333-.00024h-1.3333c-.4126 0-.7364.1204-1 .37499l-3.5415 3.62501 3.5415 3.6249c.2636.2546.5874.375 1 .375h1.3333v-1.3333c0-.3425-.1731-.7046-.4166-.9583l-1.7083-1.7082 1.7083-1.70825c.2435-.25371.4166-.6158.4166-.95831z" fill="#444" fill-rule="evenodd"/>
</svg>

<svg xmlns="http://www.w3.org/2000/svg" fill="none" width="22" height="22" viewBox="0 0 22 22">
 <path fill="#444" fill-rule="evenodd" d="M3 7.83354V6.50024V6.5H4.3333C4.74589 6.5 5.06971 6.6204 5.33327 6.87499L8.87478 10.5L5.33327 14.1249C5.06971 14.3795 4.74589 14.4999 4.3333 14.4999H3V13.1666C3 12.8241 3.1731 12.462 3.41666 12.2083L5.12488 10.5001L3.41666 8.79185C3.1731 8.53814 3 8.17605 3 7.83354ZM18.9996 7.83354V6.50024V6.5H17.6663C17.2537 6.5 16.9299 6.6204 16.6663 6.87499L13.1248 10.5L16.6663 14.1249C16.9299 14.3795 17.2537 14.4999 17.6663 14.4999H18.9996V13.1666C18.9996 12.8241 18.8265 12.462 18.583 12.2083L16.8747 10.5001L18.583 8.79185C18.8265 8.53814 18.9996 8.17605 18.9996 7.83354Z" clip-rule="evenodd"/>
</svg>
